src/pos-icons/cup-off-outline.svg

<svg height="24" viewBox="0 0 24 24" width="24" xmlns="http://www.w3.org/2000/svg"><path d="m3.83 2 2 2h12.95l-1.28 11.66 1.8 1.84 1.7-15.5m-18.73 1-1.27 1.27 2.53 2.53 1.47 13.43c.13 1 .97 1.77 2 1.77h10c.47 0 .91-.18 1.26-.46l1.47 1.46 1.27-1.27m-15.22-12.67 10.95 10.94h-9.73z"/></svg>

<?xml version="1.0" encoding="UTF-8"?><!DOCTYPE svg PUBLIC "-//W3C//DTD SVG 1.1//EN" "http://www.w3.org/Graphics/SVG/1.1/DTD/svg11.dtd"><svg xmlns="http://www.w3.org/2000/svg" xmlns:xlink="http://www.w3.org/1999/xlink" version="1.1" id="mdi-cup-off-outline" width="24" height="24" viewBox="0 0 24 24"><path d="M3.83 2L5.83 4H18.78L17.5 15.66L19.3 17.5L21 2M2.27 3L1 4.27L3.53 6.8L5 20.23C5.13 21.23 5.97 22 7 22H17C17.47 22 17.91 21.82 18.26 21.54L19.73 23L21 21.73M5.78 9.06L16.73 20H7Z" /></svg>
